svg/fluentui-system-icons/ic_fluent_image_border_20_filled.svg

<svg width="20" height="20" viewBox="0 0 20 20" fill="none" xmlns="http://www.w3.org/2000/svg">
<path d="M6 6L14 6V13.7816L11.1979 10.9938C10.535 10.3354 9.465 10.3354 8.80207 10.9938L6 13.7816V6ZM11.5 7.5C10.9477 7.5 10.5 7.94772 10.5 8.5C10.5 9.05228 10.9477 9.5 11.5 9.5C12.0523 9.5 12.5 9.05228 12.5 8.5C12.5 7.94772 12.0523 7.5 11.5 7.5ZM10.4933 11.7033L12.8017 14H7.1983L9.50673 11.7033C9.77971 11.4322 10.2203 11.4322 10.4933 11.7033ZM3 6C3 4.34315 4.34315 3 6 3H14C15.6569 3 17 4.34315 17 6V14C17 15.6569 15.6569 17 14 17H6C4.34315 17 3 15.6569 3 14V6ZM6 5C5.44772 5 5 5.44772 5 6V14C5 14.5523 5.44772 15 6 15H14C14.5523 15 15 14.5523 15 14V6C15 5.44772 14.5523 5 14 5H6Z" fill="#212121"/>
</svg>

<svg xmlns="http://www.w3.org/2000/svg" width="20" height="20"><path d="M6 6h8v7.782l-2.802-2.788a1.7 1.7 0 0 0-2.396 0L6 13.782V6Zm5.5 1.5a1 1 0 1 0 0 2 1 1 0 0 0 0-2Zm-1.007 4.203L12.802 14H7.198l2.309-2.297a.7.7 0 0 1 .986 0ZM3 6a3 3 0 0 1 3-3h8a3 3 0 0 1 3 3v8a3 3 0 0 1-3 3H6a3 3 0 0 1-3-3V6Zm3-1a1 1 0 0 0-1 1v8a1 1 0 0 0 1 1h8a1 1 0 0 0 1-1V6a1 1 0 0 0-1-1H6Z"/></svg>
